(
Window.closeAll;
Pdef.removeAll;
a=PAT.envirPoly;
a.time=40;
//a.bob=(type:\note);
a.joe=(type:\appo);
a.pattern.play
)

a.vv
a.joe.pattern.pairs

a.joe=(type:\appo)
a.time=0
a.durHarmo=8

a.joe=(degree:0)
a.vv

a.durHarmo=2
a.bob
=()
a.joe.use{~dur=1}

Pbind(\type, \harmo).play



a.durHarmo = 4

s.makeGui

s.boot

Pbind()